alura/assets/api/cursos/vendas-de-alta-performance-social-selling.svg

<?xml version="1.0" encoding="UTF-8"?>
<svg width="49px" height="51px" viewBox="0 0 49 51" version="1.1" xmlns="http://www.w3.org/2000/svg" xmlns:xlink="http://www.w3.org/1999/xlink">
    <title>Group 32</title>
    <defs>
        <polygon id="path-1" points="0 50 48.241 50 48.241 0.582 0 0.582"></polygon>
    </defs>
    <g id="Page-1" stroke="none" stroke-width="1" fill="none" fill-rule="evenodd">
        <g id="Group-32">
            <polygon id="Fill-1" fill="#FCC34F" points="1.116 31.3675 0.883 36.3635 0.949 45.0605 46.765 29.8095 46.271 25.6775 46.135 19.7245 46.757 16.1745"></polygon>
            <polygon id="Fill-2" fill="#FDCF72" points="47.1899 9.2953 46.8019 16.6913 2.0669 31.5833 1.8529 22.1873 2.0799 17.9413 47.1579 2.9343"></polygon>
            <g id="Group-31" transform="translate(0.000000, 0.417800)">
                <polyline id="Stroke-3" stroke="#444444" stroke-width="2.5" stroke-linecap="round" stroke-linejoin="round" points="9.4662 48.7501 1.2502 48.7501 1.2502 1.8321 46.9902 1.8321 46.9902 29.2811"></polyline>
                <path d="M26.9955,40.5753 C26.9955,41.5283 26.2225,42.3023 25.2685,42.3023 L24.1185,42.3023 L24.1185,41.7253 C24.1185,41.4083 23.8615,41.1503 23.5435,41.1503 C23.2255,41.1503 22.9685,41.4083 22.9685,41.7253 L22.9685,42.3023 L12.6125,42.3023 L12.6125,41.7253 C12.6125,41.4083 12.3545,41.1503 12.0375,41.1503 C11.7195,41.1503 11.4615,41.4083 11.4615,41.7253 L11.4615,42.3023 L10.3115,42.3023 C9.3575,42.3023 8.5855,41.5283 8.5855,40.5753 L8.5855,40.0003 L26.9955,40.0003 L26.9955,40.5753 Z M27.5705,38.8493 L26.4205,38.8493 L26.4205,33.2113 C26.4205,32.8933 26.1625,32.6363 25.8445,32.6363 C25.5265,32.6363 25.2685,32.8933 25.2685,33.2113 L25.2685,38.8493 L10.3115,38.8493 L10.3115,27.3433 L15.0975,27.3433 C15.4155,27.3433 15.6735,27.0863 15.6735,26.7673 C15.6735,26.4503 15.4155,26.1923 15.0975,26.1923 L9.7355,26.1923 C9.4185,26.1923 9.1605,26.4503 9.1605,26.7673 L9.1605,38.8493 L8.0105,38.8493 C7.6925,38.8493 7.4345,39.1073 7.4345,39.4253 L7.4345,40.5753 C7.4345,42.1643 8.7225,43.4523 10.3115,43.4523 L25.2685,43.4523 C26.8575,43.4523 28.1455,42.1643 28.1455,40.5753 L28.1455,39.4253 C28.1455,39.1073 27.8885,38.8493 27.5705,38.8493 L27.5705,38.8493 Z" id="Fill-5" fill="#444444"></path>
                <path d="M37.351,12.3853 L38.501,12.3853 C38.819,12.3853 39.077,12.1273 39.077,11.8093 C39.077,11.4923 38.819,11.2343 38.501,11.2343 L37.351,11.2343 C36.398,11.2343 35.624,12.0073 35.624,12.9603 L35.624,13.5353 L35.049,13.5353 C34.732,13.5353 34.474,13.7933 34.474,14.1113 C34.474,14.4283 34.732,14.6863 35.049,14.6863 L35.624,14.6863 L35.624,16.4123 C35.624,16.7303 35.882,16.9883 36.201,16.9883 C36.518,16.9883 36.776,16.7303 36.776,16.4123 L36.776,14.6863 L37.351,14.6863 C37.668,14.6863 37.926,14.4283 37.926,14.1113 C37.926,13.7933 37.668,13.5353 37.351,13.5353 L36.776,13.5353 L36.776,12.9603 C36.776,12.6423 37.033,12.3853 37.351,12.3853" id="Fill-7" fill="#444444"></path>
                <path d="M40.227,8.9332 L33.324,8.9332 C32.371,8.9332 31.598,9.7062 31.598,10.6592 L31.598,11.8092 C31.598,12.1272 31.855,12.3852 32.173,12.3852 C32.491,12.3852 32.748,12.1272 32.748,11.8092 L32.748,10.6592 C32.748,10.3412 33.006,10.0842 33.324,10.0842 L40.227,10.0842 C40.545,10.0842 40.803,10.3412 40.803,10.6592 L40.803,17.5632 C40.803,17.8812 40.545,18.1382 40.227,18.1382 L33.324,18.1382 C33.006,18.1382 32.748,17.8812 32.748,17.5632 L32.748,14.1112 C32.748,13.7932 32.491,13.5362 32.173,13.5362 C31.855,13.5362 31.598,13.7932 31.598,14.1112 L31.598,17.5632 C31.598,18.5162 32.371,19.2892 33.324,19.2892 L40.227,19.2892 C41.181,19.2892 41.954,18.5162 41.954,17.5632 L41.954,10.6592 C41.954,9.7062 41.181,8.9332 40.227,8.9332" id="Fill-9" fill="#444444"></path>
                <path d="M37.9262,31.9454 C37.9262,32.5814 37.4102,33.0964 36.7762,33.0964 C36.1402,33.0964 35.6242,32.5814 35.6242,31.9454 C35.6242,31.3104 36.1402,30.7954 36.7762,30.7954 C37.4102,30.7954 37.9262,31.3104 37.9262,31.9454 M34.4742,31.9454 C34.4742,33.2164 35.5042,34.2474 36.7762,34.2474 C38.0462,34.2474 39.0762,33.2164 39.0762,31.9454 C39.0762,30.6744 38.0462,29.6444 36.7762,29.6444 C35.5042,29.6444 34.4742,30.6744 34.4742,31.9454" id="Fill-11" fill="#444444"></path>
                <path d="M40.227,26.7677 L33.324,26.7677 C32.371,26.7677 31.598,27.5407 31.598,28.4947 L31.598,35.3977 C31.598,36.3507 32.371,37.1227 33.324,37.1227 L40.227,37.1227 C41.181,37.1227 41.954,36.3507 41.954,35.3977 L41.954,34.2467 C41.954,33.9297 41.696,33.6717 41.378,33.6717 C41.06,33.6717 40.803,33.9297 40.803,34.2467 L40.803,35.3977 C40.803,35.7147 40.545,35.9727 40.227,35.9727 L33.324,35.9727 C33.006,35.9727 32.748,35.7147 32.748,35.3977 L32.748,28.4947 C32.748,28.1757 33.006,27.9187 33.324,27.9187 L40.227,27.9187 C40.545,27.9187 40.803,28.1757 40.803,28.4947 L40.803,31.9457 C40.803,32.2637 41.06,32.5217 41.378,32.5217 C41.696,32.5217 41.954,32.2637 41.954,31.9457 L41.954,28.4947 C41.954,27.5407 41.181,26.7677 40.227,26.7677" id="Fill-13" fill="#444444"></path>
                <path d="M21.2421,12.7418 L22.8301,13.5358 L21.2421,14.3298 L21.2421,12.7418 Z M20.3621,15.7508 C20.4531,15.8078 20.5591,15.8378 20.6671,15.8368242 C20.7571,15.8368242 20.8461,15.8148 20.9261,15.7738 L24.3771,14.0478 C24.6601,13.9028 24.7721,13.5558 24.6271,13.2738 C24.5721,13.1658 24.4851,13.0788 24.3771,13.0238 L20.9261,11.2978 C20.6421,11.1548 20.2961,11.2688 20.1531,11.5528 C20.1131,11.6328 20.0920927,11.7208 20.0920927,11.8098 L20.0920927,15.2618 C20.0911,15.4608 20.1931,15.6458 20.3621,15.7508 L20.3621,15.7508 Z" id="Fill-15" fill="#444444"></path>
                <path d="M21.8173,9.5084 C24.0413,9.5084 25.8443,11.3114 25.8443,13.5354 C25.8443,15.7594 24.0413,17.5634 21.8173,17.5634 C19.5933,17.5634 17.7903,15.7594 17.7903,13.5354 C17.7903,11.3114 19.5933,9.5084 21.8173,9.5084 M21.8173,18.7134 C24.6773,18.7134 26.9953,16.3954 26.9953,13.5354 C26.9953,10.6764 24.6773,8.3584 21.8173,8.3584 C18.9583,8.3584 16.6393,10.6764 16.6393,13.5354 C16.6393,16.3954 18.9583,18.7134 21.8173,18.7134" id="Fill-17" fill="#444444"></path>
                <path d="M27.5707,21.0147 C27.7517,21.0147 27.9227,20.9297 28.0307,20.7847 L29.7567,18.4837 C29.9467,18.2287 29.8947,17.8687 29.6407,17.6787 C29.3867,17.4877 29.0267,17.5397 28.8367,17.7927 L27.1107,20.0947 C26.9197,20.3487 26.9707,20.7087 27.2247,20.8997 C27.3247,20.9747 27.4457,21.0147 27.5707,21.0147" id="Fill-19" fill="#444444"></path>
                <path d="M28.8363,23.086 C28.9443,23.231 29.1153,23.316 29.2963,23.316 C29.4213,23.316 29.5423,23.276 29.6423,23.201 L31.9423,21.475 C32.1963,21.284 32.2483,20.924 32.0583,20.669 C31.8673,20.416 31.5063,20.364 31.2523,20.555 L28.9513,22.28 C28.6963,22.471 28.6463,22.832 28.8363,23.086" id="Fill-21" fill="#444444"></path>
                <path d="M34.474,24.3517 C34.418,24.0397 34.12,23.8307 33.806,23.8867 C33.799,23.8887 33.791,23.8897 33.784,23.8917 L30.908,24.4667 C30.589,24.4987 30.358,24.7817 30.39,25.0997 C30.421,25.4167 30.704,25.6487 31.023,25.6177 L31.137,25.6177 L34.014,25.0417 C34.327,24.9857 34.535,24.6867 34.479,24.3737 C34.477,24.3667 34.476,24.3587 34.474,24.3517" id="Fill-23" fill="#444444"></path>
                <mask id="mask-2" fill="white">
                    <use xlink:href="#path-1"></use>
                </mask>
                <g id="Clip-26"></g>
                <path d="M8.585,23.316 L14.338,23.316 L14.338,15.262 L8.585,15.262 L8.585,23.316 Z M8.01,24.467 L14.913,24.467 C15.231,24.467 15.489,24.209 15.489,23.891 L15.489,14.687 C15.489,14.369 15.231,14.111 14.913,14.111 L8.01,14.111 C7.692,14.111 7.434,14.369 7.434,14.687 L7.434,23.891 C7.434,24.209 7.692,24.467 8.01,24.467 L8.01,24.467 Z" id="Fill-25" fill="#444444" mask="url(#mask-2)"></path>
                <path d="M12.6122,16.4122 L11.4622,16.4122 C11.1442,16.4122 10.8862,16.6702 10.8862,16.9882 C10.8862,17.3052 11.1442,17.5632 11.4622,17.5632 L12.6122,17.5632 C12.9302,17.5632 13.1882,17.3052 13.1882,16.9882 C13.1882,16.6702 12.9302,16.4122 12.6122,16.4122" id="Fill-27" fill="#444444" mask="url(#mask-2)"></path>
                <path d="M12.6122,18.7135 L10.3112,18.7135 C9.9932,18.7135 9.7362,18.9715 9.7362,19.2895 C9.7362,19.6065 9.9932,19.8645 10.3112,19.8645 L12.6122,19.8645 C12.9302,19.8645 13.1882,19.6065 13.1882,19.2895 C13.1882,18.9715 12.9302,18.7135 12.6122,18.7135" id="Fill-28" fill="#444444" mask="url(#mask-2)"></path>
                <path d="M12.6122,21.0147 L10.3112,21.0147 C9.9932,21.0147 9.7362,21.2727 9.7362,21.5897 C9.7362,21.9077 9.9932,22.1657 10.3112,22.1657 L12.6122,22.1657 C12.9302,22.1657 13.1882,21.9077 13.1882,21.5897 C13.1882,21.2727 12.9302,21.0147 12.6122,21.0147" id="Fill-29" fill="#444444" mask="url(#mask-2)"></path>
                <path d="M21.0463,35.7374 C21.1233,35.8694 21.1433,36.0264 21.1043,36.1744 C21.0633,36.3204 20.9653,36.4444 20.8333,36.5194 C20.5603,36.6764 20.2113,36.5844 20.0513,36.3124 L18.9003,34.3164 L19.8553,33.7694 L19.9013,33.7694 L21.0463,35.7374 Z M13.4753,34.1264 C13.3433,34.2024 13.1863,34.2234 13.0383,34.1834 C12.8903,34.1454 12.7643,34.0504 12.6873,33.9194 C12.6103,33.7874 12.5903,33.6294 12.6293,33.4814 C12.6693,33.3334 12.7663,33.2074 12.9003,33.1314 L13.4003,32.8424 L13.9763,33.8394 L13.4753,34.1264 Z M27.0643,24.2944 C26.9053,24.0174 26.5523,23.9224 26.2753,24.0814 C25.9993,24.2404 25.9043,24.5924 26.0633,24.8694 L28.6003,29.2584 L19.3953,32.7114 L19.3553,32.7114 L19.3093,32.7114 L17.8133,33.5744 L16.8173,34.1494 C16.5533,34.3014 16.2383,34.3434 15.9433,34.2644 C15.6503,34.1844 15.3993,33.9924 15.2473,33.7294 L14.0963,31.7384 C13.8163,31.1984 14.0043,30.5324 14.5283,30.2194 L16.5193,29.0694 L17.9573,31.5604 C18.0603,31.7394 18.2513,31.8484 18.4573,31.8474 C18.7753,31.8494 19.0343,31.5924 19.0353,31.2744 C19.0353,31.1734 19.0093,31.0734 18.9583,30.9854 L17.4743,28.4194 L24.6933,22.4644 L24.9303,22.8734 C25.0883,23.1494 25.4423,23.2444 25.7183,23.0864 C25.9943,22.9274 26.0903,22.5744 25.9313,22.2984 L25.3563,21.3024 C25.2703,21.1564 25.1253,21.0554 24.9583,21.0264 C24.7913,20.9944 24.6183,21.0394 24.4863,21.1474 L16.4323,27.7864 L13.9823,29.2014 C13.0773,29.7284 12.6423,30.7994 12.9233,31.8074 L12.3473,32.1354 C11.5213,32.6104 11.2353,33.6654 11.7103,34.4924 C11.9393,34.8904 12.3173,35.1814 12.7623,35.3004 C12.9083,35.3394 13.0593,35.3574 13.2113,35.3574 C13.5133,35.3564 13.8103,35.2764 14.0733,35.1274 L14.6493,34.7994 C14.9253,35.0854 15.2733,35.2914 15.6553,35.3974 C15.8523,35.4524 16.0553,35.4794 16.2593,35.4784 C16.6643,35.4794 17.0613,35.3724 17.4103,35.1674 L17.9113,34.8804 L19.0623,36.8764 C19.5383,37.6994 20.5893,37.9824 21.4153,37.5084 C22.2403,37.0334 22.5243,35.9774 22.0483,35.1514 C22.0483,35.1514 22.0473,35.1504 22.0473,35.1504 L21.0003,33.3264 L29.6303,30.0884 C29.7883,30.0284 29.9123,29.9014 29.9693,29.7424 C30.0253,29.5854 30.0113,29.4104 29.9293,29.2644 L27.0643,24.2944 Z" id="Fill-30" fill="#444444" mask="url(#mask-2)"></path>
            </g>
        </g>
    </g>
</svg>

<svg xmlns="http://www.w3.org/2000/svg" xmlns:xlink="http://www.w3.org/1999/xlink" viewBox="0 0 49 51"><defs><path id="a" d="M0 50h48.241V.582H0z"/></defs><g fill="none" fill-rule="evenodd"><path fill="#FCC34F" d="M1.116 31.367l-.233 4.997.066 8.697 45.816-15.252-.494-4.132-.136-5.953.622-3.55z"/><path fill="#FDCF72" d="M47.19 9.295l-.388 7.396L2.067 31.583l-.214-9.396.227-4.246L47.158 2.934z"/><g transform="translate(0 .418)"><path stroke="#444" stroke-linecap="round" stroke-linejoin="round" stroke-width="2.5" d="M9.466 48.75H1.25V1.832h45.74v27.45"/><path fill="#444" d="M26.995 40.575c0 .953-.773 1.727-1.727 1.727h-1.15v-.577a.575.575 0 00-1.15 0v.577H12.613v-.577a.576.576 0 00-1.152 0v.577h-1.15a1.727 1.727 0 01-1.726-1.727V40h18.41v.575zm.575-1.726h-1.15v-5.638a.575.575 0 00-1.152 0v5.638H10.311V27.343h4.787a.576.576 0 100-1.15H9.735a.576.576 0 00-.574.574V38.85H8.01a.576.576 0 00-.576.576v1.15a2.877 2.877 0 002.877 2.877h14.957a2.877 2.877 0 002.877-2.877v-1.15a.575.575 0 00-.576-.576zm9.781-26.464h1.15a.576.576 0 000-1.15h-1.15c-.953 0-1.727.772-1.727 1.725v.575h-.575a.576.576 0 000 1.151h.575v1.726a.576.576 0 001.152 0v-1.726h.575a.576.576 0 000-1.15h-.575v-.576c0-.318.257-.575.575-.575"/><path fill="#444" d="M40.227 8.933h-6.903c-.953 0-1.726.773-1.726 1.726v1.15a.575.575 0 101.15 0v-1.15c0-.318.258-.575.576-.575h6.903c.318 0 .576.257.576.575v6.904a.575.575 0 01-.576.575h-6.903a.575.575 0 01-.576-.575v-3.452a.574.574 0 10-1.15 0v3.452c0 .953.773 1.726 1.726 1.726h6.903c.954 0 1.727-.773 1.727-1.726V10.66c0-.953-.773-1.726-1.727-1.726m-2.301 23.011a1.151 1.151 0 11-2.302 0 1.151 1.151 0 012.302 0m-3.452 0a2.302 2.302 0 104.604 0 2.302 2.302 0 00-4.604 0"/><path fill="#444" d="M40.227 26.768h-6.903c-.953 0-1.726.773-1.726 1.727v6.903c0 .953.773 1.725 1.726 1.725h6.903c.954 0 1.727-.772 1.727-1.725v-1.151a.576.576 0 00-1.151 0v1.15a.576.576 0 01-.576.576h-6.903a.576.576 0 01-.576-.575v-6.903c0-.32.258-.576.576-.576h6.903c.318 0 .576.257.576.576v3.45a.575.575 0 101.151 0v-3.45c0-.954-.773-1.727-1.727-1.727M21.242 12.742l1.588.794-1.588.794v-1.588zm-.88 3.009a.565.565 0 00.564.023l3.451-1.726a.575.575 0 000-1.024l-3.45-1.726a.575.575 0 00-.835.512v3.452a.572.572 0 00.27.489z"/><path fill="#444" d="M21.817 9.508a4.027 4.027 0 110 8.055 4.027 4.027 0 010-8.055m0 9.205a5.178 5.178 0 10.001-10.355 5.178 5.178 0 000 10.355m5.752 2.302a.574.574 0 00.46-.23l1.727-2.301a.576.576 0 00-.92-.691l-1.726 2.302a.575.575 0 00.46.92m1.265 2.071a.574.574 0 00.806.115l2.3-1.726a.577.577 0 00.116-.806.577.577 0 00-.806-.114l-2.3 1.725a.576.576 0 00-.116.806m5.638 1.266a.576.576 0 00-.668-.465l-.022.005-2.876.575a.577.577 0 10.115 1.15h.114l2.877-.575a.575.575 0 00.465-.668l-.005-.022"/><mask id="b" fill="#fff"><use xlink:href="#a"/></mask><path fill="#444" d="M8.585 23.316h5.753v-8.054H8.585v8.054zm-.575 1.151h6.903a.576.576 0 00.576-.576v-9.204a.576.576 0 00-.576-.576H8.01a.576.576 0 00-.576.576v9.204c0 .318.258.576.576.576z" mask="url(#b)"/><path fill="#444" d="M12.612 16.412h-1.15a.576.576 0 000 1.151h1.15a.576.576 0 100-1.15m0 2.3h-2.3a.575.575 0 000 1.151h2.3a.576.576 0 100-1.15m0 2.301h-2.3a.575.575 0 000 1.15h2.3a.576.576 0 000-1.15m8.434 14.722a.575.575 0 01.058.437.577.577 0 01-1.053.138l-1.15-1.996.954-.547h.046l1.145 1.968zm-7.57-1.61a.575.575 0 01-.438.056.571.571 0 01-.138-1.052l.5-.289.576.997-.5.287zm13.588-9.833a.578.578 0 10-1 .575l2.536 4.39-9.205 3.452h-.086l-1.496.863-.996.575a1.155 1.155 0 01-.874.115 1.155 1.155 0 01-.696-.535l-1.15-1.99a1.152 1.152 0 01.431-1.52l1.991-1.15 1.438 2.491a.573.573 0 00.5.287.575.575 0 00.501-.862l-1.484-2.566 7.22-5.955.236.41a.578.578 0 001.001-.576l-.575-.996a.576.576 0 00-.398-.276.575.575 0 00-.472.121l-8.054 6.64-2.45 1.414a2.3 2.3 0 00-1.059 2.606l-.576.328a1.727 1.727 0 101.726 2.992l.576-.328a2.225 2.225 0 001.61.68 2.26 2.26 0 001.151-.312l.501-.287 1.151 1.996a1.725 1.725 0 002.986-1.725L21 33.325l8.63-3.238a.58.58 0 00.3-.824l-2.866-4.97z" mask="url(#b)"/></g></g></svg>
